svg/other/kite_fill.svg

<?xml version="1.0" encoding="UTF-8"?>
<svg width="24px" height="24px" viewBox="0 0 24 24" version="1.1" xmlns="http://www.w3.org/2000/svg" xmlns:xlink="http://www.w3.org/1999/xlink">
    <title>kite_fill</title>
    <g id="Icon" stroke="none" stroke-width="1" fill="none" fill-rule="evenodd">
        <g id="Other" transform="translate(-386.000000, -144.000000)">
            <g id="kite_fill" transform="translate(386.000000, 144.000000)">
                <path d="M24,0 L24,24 L0,24 L0,0 L24,0 Z M12.5935,23.2578 L12.5819,23.2595 L12.5109,23.295 L12.4919,23.2987 L12.4767,23.295 L12.4057,23.2595 C12.3958,23.2564 12.387,23.259 12.3821,23.2649 L12.378,23.2758 L12.3609,23.7031 L12.3659,23.7235 L12.3769,23.7357 L12.4805,23.8097 L12.4953,23.8136 L12.5071,23.8097 L12.6107,23.7357 L12.6233,23.7197 L12.6267,23.7031 L12.6096,23.2758 C12.6076,23.2657 12.601,23.2593 12.5935,23.2578 Z M12.8584,23.1453 L12.8445,23.1473 L12.6598,23.2397 L12.6499,23.2499 L12.6472,23.2611 L12.6651,23.6906 L12.6699,23.7034 L12.6784,23.7105 L12.8793,23.8032 C12.8914,23.8069 12.9022,23.803 12.9078,23.7952 L12.9118,23.7812 L12.8777,23.1665 C12.8753,23.1546 12.8674,23.147 12.8584,23.1453 Z M12.143,23.1473 C12.1332,23.1424 12.1222,23.1453 12.1156,23.1526 L12.1099,23.1665 L12.0758,23.7812 C12.0751,23.7927 12.0828,23.8019 12.0926,23.8046 L12.1083,23.8032 L12.3092,23.7105 L12.3186,23.7024 L12.3225,23.6906 L12.3404,23.2611 L12.3372,23.2485 L12.3278,23.2397 L12.143,23.1473 Z" id="MingCute" fill-rule="nonzero"></path>
                <path d="M14.6118,20.9257 C13.6518,20.6077 6.07961,17.8997 2.11749,10.4706 C1.86349,9.99364 2.03449,9.39964 2.50349,9.13164 C5.70449,7.30364 8.08249,2.59964 8.10549,2.55264 C8.25549,2.25264 8.54549,2.04864 8.87749,2.00764 C9.21049,1.96964 9.54149,2.09564 9.75949,2.34864 C9.78449,2.37864 12.6035,5.54664 18.0835,6.00364 C18.4485,6.03364 18.7685,6.26264 18.9165,6.59864 C19.0635,6.93464 19.0145,7.32464 18.7895,7.61364 C16.0255,11.1669 15.9441,17.5987 15.9817,19.4384 C16.0674,19.49 16.1558,19.5354 16.2463,19.5716 C16.4314,19.6457 16.5848,19.6633 16.7192,19.6399 C16.8463,19.6178 17.0409,19.5449 17.2928,19.293 C18.1232,18.4625 19.0724,18.2371 19.9231,18.3756 C20.7117,18.504 21.3438,18.9298 21.707,19.293 C22.0975,19.6835 22.0975,20.3167 21.707,20.7072 C21.3165,21.0977 20.6833,21.0977 20.2928,20.7072 C20.1559,20.5704 19.888,20.3962 19.6017,20.3496 C19.3774,20.3131 19.0765,20.3377 18.707,20.7072 C18.2088,21.2054 17.6535,21.5074 17.0618,21.6103 C16.4775,21.7119 15.9433,21.6045 15.5035,21.4286 C15.1695,21.295 14.8684,21.1123 14.6118,20.9257 Z M5.10874,9.72158 C5.5986,9.83252 6.19783,9.92033 6.89987,9.93789 C7.4817,9.95243 8.14038,9.91884 8.87203,9.80723 C8.58656,8.66815 8.35436,7.46921 8.20153,6.22794 C8.62503,5.62419 8.97796,5.06409 9.25051,4.60669 C9.49272,4.80725 9.77842,5.02823 10.1077,5.25854 C10.242,6.68286 10.4941,8.0594 10.8212,9.35754 C12.0535,8.98016 13.4328,8.38668 14.9472,7.48574 C15.3754,7.59978 15.8241,7.70062 16.2935,7.78469 C15.9942,8.32436 15.733,8.89171 15.505,9.47437 C14.0224,10.3142 12.6421,10.8942 11.3749,11.2797 C11.6059,11.992 11.8554,12.6719 12.1145,13.3128 C12.7507,14.8866 13.4306,16.1915 14.0167,17.1522 C13.9905,17.6617 13.9785,18.1235 13.9745,18.5217 C13.4053,18.2698 12.6858,17.9212 11.8824,17.4635 C11.3406,16.4977 10.7794,15.3466 10.2603,14.0624 C9.96677,13.3364 9.68387,12.561 9.42339,11.7441 C8.48278,11.9044 7.62292,11.9566 6.84989,11.9373 C6.2928,11.9233 5.78463,11.8723 5.32774,11.7994 C4.98014,11.335 4.64764,10.8448 4.33551,10.3277 C4.60048,10.1378 4.85841,9.93464 5.10874,9.72158 Z" id="形状" fill="#09244B"></path>
            </g>
        </g>
    </g>
</svg>

<svg xmlns="http://www.w3.org/2000/svg" width="24" height="24"><g fill="none" fill-rule="evenodd"><path d="M24 0v24H0V0h24ZM12.594 23.258l-.012.002-.071.035-.02.004-.014-.004-.071-.036c-.01-.003-.019 0-.024.006l-.004.01-.017.428.005.02.01.013.104.074.015.004.012-.004.104-.074.012-.016.004-.017-.017-.427c-.002-.01-.009-.017-.016-.018Zm.264-.113-.014.002-.184.093-.01.01-.003.011.018.43.005.012.008.008.201.092c.012.004.023 0 .029-.008l.004-.014-.034-.614c-.003-.012-.01-.02-.02-.022Zm-.715.002a.023.023 0 0 0-.027.006l-.006.014-.034.614c0 .012.007.02.017.024l.015-.002.201-.093.01-.008.003-.011.018-.43-.003-.012-.01-.01-.184-.092Z"/><path fill="#09244B" d="M14.612 20.926c-.96-.318-8.532-3.026-12.495-10.455a1.001 1.001 0 0 1 .386-1.34C5.704 7.305 8.083 2.6 8.105 2.554a1 1 0 0 1 1.654-.204c.025.03 2.845 3.198 8.325 3.655a1.001 1.001 0 0 1 .706 1.61c-2.764 3.553-2.846 9.985-2.808 11.824.085.052.174.097.264.134a.861.861 0 0 0 .473.068c.127-.022.322-.095.574-.347.83-.83 1.78-1.056 2.63-.917.789.128 1.42.554 1.784.917a1 1 0 0 1-1.414 1.414 1.375 1.375 0 0 0-.691-.357c-.225-.037-.526-.012-.895.357-.498.498-1.053.8-1.645.903a2.853 2.853 0 0 1-1.559-.181 4.162 4.162 0 0 1-.891-.503ZM5.109 9.722c.49.11 1.089.198 1.79.216.583.014 1.241-.02 1.973-.13a29.65 29.65 0 0 1-.67-3.58c.423-.604.776-1.164 1.049-1.621.242.2.527.421.857.652.134 1.424.386 2.8.713 4.099 1.233-.378 2.612-.971 4.126-1.872.428.114.877.215 1.347.299-.3.54-.561 1.107-.789 1.69-1.483.84-2.863 1.42-4.13 1.805a30.7 30.7 0 0 0 .74 2.033 26.699 26.699 0 0 0 1.902 3.84c-.026.509-.038.97-.042 1.369-.57-.252-1.29-.6-2.093-1.058a29.978 29.978 0 0 1-1.622-3.402 32.681 32.681 0 0 1-.837-2.318c-.94.16-1.8.213-2.573.193a11.49 11.49 0 0 1-1.522-.138c-.348-.464-.68-.954-.992-1.471.264-.19.522-.393.773-.606Z"/></g></svg>
